remix/Others/lightbulb-fill.svg

<svg viewBox="0 0 24 24" fill="currentColor" xmlns="http://www.w3.org/2000/svg"><path d="M11 18H7.94101C7.64391 16.7274 6.30412 15.6857 5.75395 14.9992C4.65645 13.6297 4 11.8915 4 10C4 5.58172 7.58172 2 12 2C16.4183 2 20 5.58172 20 10C20 11.8925 19.3428 13.6315 18.2443 15.0014C17.6944 15.687 16.3558 16.7276 16.059 18H13V13H11V18ZM16 20V21C16 22.1046 15.1046 23 14 23H10C8.89543 23 8 22.1046 8 21V20H16Z"/></svg>

<svg viewBox="0 0 24 24" xmlns="http://www.w3.org/2000/svg"><path fill="none" d="M0 0h24v24H0Z"/><path d="M11 18H7.94c-.3-1.28-1.64-2.314-2.19-3h-.001c-2.77-3.45-2.21-8.49 1.24-11.25 3.44-2.77 8.48-2.21 11.24 1.24 2.33 2.92 2.33 7.07-.01 9.99 -.55.68-1.89 1.72-2.19 2.99h-3.06v-5h-2v5Zm5 2v1 0c0 1.1-.9 2-2 2h-4v0c-1.11 0-2-.9-2-2v-1h8Z"/></svg>
